Icons/rename_me_sim_toolkit.svg

<svg viewBox="0 0 48 48" xmlns:xlink="http://www.w3.org/1999/xlink">
 <defs>
  <linearGradient id="0">
   <stop stop-opacity="0"/>
   <stop offset="1"/>
  </linearGradient>
  <linearGradient xlink:href="#0" id="1" gradientUnits="userSpaceOnUse" gradientTransform="translate(4e-7,-48)" y1="47" x2="0" y2="1"/>
  <clipPath id="2">
   <g transform="translate(0,-1004.3622)">
    <rect rx="4" y="1005.36" x="1" height="46" width="46" fill="#1890d0"/>
   </g>
  </clipPath>
  <clipPath id="3">
   <g transform="translate(0,-1004.3622)">
    <rect rx="4" y="1005.36" x="1" height="46" width="46" fill="#1890d0"/>
   </g>
  </clipPath>
 </defs>
 <g>
  <g transform="translate(0,-1004.3622)">
   <path d="m 5,1006.3622 c -2.216,0 -4,1.784 -4,4 l 0,37.25 c 0,2.216 1.784,4 4,4 l 38,0 c 2.216,0 4,-1.784 4,-4 l 0,-37.25 c 0,-2.216 -1.784,-4 -4,-4 l -38,0 z m -4,41.5 0,0.5 c 0,2.216 1.784,4 4,4 l 38,0 c 2.216,0 4,-1.784 4,-4 l 0,-0.5 c 0,2.216 -1.784,4 -4,4 l -38,0 c -2.216,0 -4,-1.784 -4,-4 z" opacity="0.02"/>
   <path d="m 1,1047.6122 0,0.25 c 0,2.216 1.784,4 4,4 l 38,0 c 2.216,0 4,-1.784 4,-4 l 0,-0.25 c 0,2.216 -1.784,4 -4,4 l -38,0 c -2.216,0 -4,-1.784 -4,-4 z" opacity="0.05"/>
   <rect width="46" height="46" x="1" y="1005.61" rx="4" opacity="0.1"/>
  </g>
 </g>
 <g>
  <g transform="translate(0,-1004.3622)">
   <rect rx="4" y="1005.36" x="1" height="46" width="46" fill="#b4c5e5"/>
  </g>
 </g>
 <g>
  <rect transform="scale(1,-1)" width="46" height="46" x="1" y="-46.998" rx="4" opacity="0.1" fill="url(#1)"/>
 </g>
 <g>
  <g clip-path="url(#2)">
   <g opacity="0.1">
    <g>
     <path d="M 20 12 L 14 18 L 14 34.21875 C 14 35.199219 14.800781 36 15.78125 36 L 32.21875 36 C 33.199219 36 34 35.199219 34 34.21875 L 34 13.78125 C 34 12.800781 33.199219 12 32.21875 12 Z M 20 12 "/>
     <path d="M 16.886719 23 L 20 23 L 20 28 L 16 28 L 16 23.886719 C 16 23.394531 16.394531 23 16.886719 23 Z M 16.886719 23 "/>
     <path d="M 16 30 L 18 30 L 18 35 L 16.355469 35 C 16.15625 35 16 34.84375 16 34.644531 Z M 16 30 "/>
     <path d="M 30 23 L 31.644531 23 C 31.84375 23 32 23.15625 32 23.355469 L 32 28 L 30 28 Z M 30 23 "/>
     <path d="M 19.875 30 C 19.382812 30 19 30.382812 19 30.875 L 19 34.125 C 19 34.617188 19.382812 35 19.875 35 L 23 35 L 23 32 L 21.875 32 C 21.382812 32 21 31.617188 21 31.125 L 21 30 Z M 28 30 L 28 31.125 C 28 31.617188 27.617188 32 27.125 32 L 26 32 L 26 35 L 31.125 35 C 31.617188 35 32 34.617188 32 34.125 L 32 30.875 C 32 30.382812 31.617188 30 31.125 30 Z M 28 30 "/>
     <path d="M 21.886719 23 L 27.117188 23 C 27.605469 23 28.003906 23.394531 28.003906 23.886719 L 28.003906 27.113281 C 28.003906 27.601562 27.605469 28 27.117188 28 L 21.886719 28 C 21.398438 28 21 27.601562 21 27.113281 L 21 23.886719 C 21 23.394531 21.398438 23 21.886719 23 Z M 21.886719 23 "/>
    </g>
   </g>
  </g>
 </g>
 <g>
  <g clip-path="url(#3)">
   <g transform="translate(0,-1)">
    <g>
     <path d="M 20 12 L 14 18 L 14 34.21875 C 14 35.199219 14.800781 36 15.78125 36 L 32.21875 36 C 33.199219 36 34 35.199219 34 34.21875 L 34 13.78125 C 34 12.800781 33.199219 12 32.21875 12 Z M 20 12 " fill="#df765c"/>
     <path d="M 16.886719 23 L 20 23 L 20 28 L 16 28 L 16 23.886719 C 16 23.394531 16.394531 23 16.886719 23 Z M 16.886719 23 " fill="#f3eb5f"/>
     <path d="M 16 30 L 18 30 L 18 35 L 16.355469 35 C 16.15625 35 16 34.84375 16 34.644531 Z M 16 30 " fill="#f3eb5f"/>
     <path d="M 30 23 L 31.644531 23 C 31.84375 23 32 23.15625 32 23.355469 L 32 28 L 30 28 Z M 30 23 " fill="#f3eb5f"/>
     <path d="M 19.875 30 C 19.382812 30 19 30.382812 19 30.875 L 19 34.125 C 19 34.617188 19.382812 35 19.875 35 L 23 35 L 23 32 L 21.875 32 C 21.382812 32 21 31.617188 21 31.125 L 21 30 Z M 28 30 L 28 31.125 C 28 31.617188 27.617188 32 27.125 32 L 26 32 L 26 35 L 31.125 35 C 31.617188 35 32 34.617188 32 34.125 L 32 30.875 C 32 30.382812 31.617188 30 31.125 30 Z M 28 30 " fill="#f3eb5f"/>
     <path d="M 21.886719 23 L 27.117188 23 C 27.605469 23 28.003906 23.394531 28.003906 23.886719 L 28.003906 27.113281 C 28.003906 27.601562 27.605469 28 27.117188 28 L 21.886719 28 C 21.398438 28 21 27.601562 21 27.113281 L 21 23.886719 C 21 23.394531 21.398438 23 21.886719 23 Z M 21.886719 23 " fill="#f3eb5f"/>
    </g>
   </g>
  </g>
 </g>
 <g>
  <g transform="translate(0,-1004.3622)">
   <path d="m 1,1043.3622 0,4 c 0,2.216 1.784,4 4,4 l 38,0 c 2.216,0 4,-1.784 4,-4 l 0,-4 c 0,2.216 -1.784,4 -4,4 l -38,0 c -2.216,0 -4,-1.784 -4,-4 z" opacity="0.1"/>
  </g>
 </g>
</svg>

<svg viewBox="0 0 48 48"><defs><linearGradient id="linearGradient3764" x1="1" x2="47" gradientUnits="userSpaceOnUse" gradientTransform="translate(-48.000001,0.00221467)"><stop stop-color="#a4b9e0" stop-opacity="1"/><stop offset="1" stop-color="#b4c5e5" stop-opacity="1"/></linearGradient><clipPath id="clipPath-301836297"><g transform="translate(0,-1004.3622)"><rect rx="4" y="1005.36" x="1" height="46" width="46" fill="#1890d0"/></g></clipPath><clipPath id="clipPath-316907942"><g transform="translate(0,-1004.3622)"><rect rx="4" y="1005.36" x="1" height="46" width="46" fill="#1890d0"/></g></clipPath></defs><g><path d="m 1 43 l 0 0.25 c 0 2.216 1.784 4 4 4 l 38 0 c 2.216 0 4 -1.784 4 -4 l 0 -0.25 c 0 2.216 -1.784 4 -4 4 l -38 0 c -2.216 0 -4 -1.784 -4 -4 z m 0 0.5 l 0 0.5 c 0 2.216 1.784 4 4 4 l 38 0 c 2.216 0 4 -1.784 4 -4 l 0 -0.5 c 0 2.216 -1.784 4 -4 4 l -38 0 c -2.216 0 -4 -1.784 -4 -4 z" opacity="0.02"/><path d="m 1 43.25 l 0 0.25 c 0 2.216 1.784 4 4 4 l 38 0 c 2.216 0 4 -1.784 4 -4 l 0 -0.25 c 0 2.216 -1.784 4 -4 4 l -38 0 c -2.216 0 -4 -1.784 -4 -4 z" opacity="0.05"/><path d="m 1 43 l 0 0.25 c 0 2.216 1.784 4 4 4 l 38 0 c 2.216 0 4 -1.784 4 -4 l 0 -0.25 c 0 2.216 -1.784 4 -4 4 l -38 0 c -2.216 0 -4 -1.784 -4 -4 z" opacity="0.1"/></g><g><rect width="46" height="46" x="-47" y="1" rx="4" transform="matrix(0,-1,1,0,0,0)" fill="url(#linearGradient3764)" fill-opacity="1"/></g><g><g clip-path="url(#clipPath-301836297)"><g opacity="0.1"><!-- color: #b4c5e5 --><g><path d="m 20 12 l -6 6 l 0 16.219 c 0 0.98 0.801 1.781 1.781 1.781 l 16.438 0 c 0.98 0 1.781 -0.801 1.781 -1.781 l 0 -20.438 c 0 -0.98 -0.801 -1.781 -1.781 -1.781 m -12.219 0" fill="#000"/><path d="m 16.887 23 l 3.113 0 l 0 5 l -4 0 l 0 -4.113 c 0 -0.492 0.395 -0.887 0.887 -0.887 m 0 0" fill="#000"/><path d="m 16 30 l 2 0 l 0 5 l -1.645 0 c -0.199 0 -0.355 -0.156 -0.355 -0.355 m 0 -4.645" fill="#000"/><path d="m 30 23 l 1.645 0 c 0.199 0 0.355 0.156 0.355 0.355 l 0 4.645 l -2 0 m 0 -5" fill="#000"/><path d="m 19.875 30 c -0.492 0 -0.875 0.383 -0.875 0.875 l 0 3.25 c 0 0.492 0.383 0.875 0.875 0.875 l 3.125 0 l 0 -3 l -1.125 0 c -0.492 0 -0.875 -0.383 -0.875 -0.875 l 0 -1.125 m 7 0 l 0 1.125 c 0 0.492 -0.383 0.875 -0.875 0.875 l -1.125 0 l 0 3 l 5.125 0 c 0.492 0 0.875 -0.383 0.875 -0.875 l 0 -3.25 c 0 -0.492 -0.383 -0.875 -0.875 -0.875 m -3.125 0" fill="#000"/><path d="m 21.887 23 l 5.23 0 c 0.488 0 0.887 0.395 0.887 0.887 l 0 3.227 c 0 0.488 -0.398 0.887 -0.887 0.887 l -5.23 0 c -0.488 0 -0.887 -0.398 -0.887 -0.887 l 0 -3.227 c 0 -0.492 0.398 -0.887 0.887 -0.887 m 0 0" fill="#000"/></g></g></g></g><g><g clip-path="url(#clipPath-316907942)"><g transform="translate(0,-1)"><!-- color: #b4c5e5 --><g><path d="m 20 12 l -6 6 l 0 16.219 c 0 0.98 0.801 1.781 1.781 1.781 l 16.438 0 c 0.98 0 1.781 -0.801 1.781 -1.781 l 0 -20.438 c 0 -0.98 -0.801 -1.781 -1.781 -1.781 m -12.219 0" fill="#df765c"/><path d="m 16.887 23 l 3.113 0 l 0 5 l -4 0 l 0 -4.113 c 0 -0.492 0.395 -0.887 0.887 -0.887 m 0 0" fill="#f3eb5f"/><path d="m 16 30 l 2 0 l 0 5 l -1.645 0 c -0.199 0 -0.355 -0.156 -0.355 -0.355 m 0 -4.645" fill="#f3eb5f"/><path d="m 30 23 l 1.645 0 c 0.199 0 0.355 0.156 0.355 0.355 l 0 4.645 l -2 0 m 0 -5" fill="#f3eb5f"/><path d="m 19.875 30 c -0.492 0 -0.875 0.383 -0.875 0.875 l 0 3.25 c 0 0.492 0.383 0.875 0.875 0.875 l 3.125 0 l 0 -3 l -1.125 0 c -0.492 0 -0.875 -0.383 -0.875 -0.875 l 0 -1.125 m 7 0 l 0 1.125 c 0 0.492 -0.383 0.875 -0.875 0.875 l -1.125 0 l 0 3 l 5.125 0 c 0.492 0 0.875 -0.383 0.875 -0.875 l 0 -3.25 c 0 -0.492 -0.383 -0.875 -0.875 -0.875 m -3.125 0" fill="#f3eb5f"/><path d="m 21.887 23 l 5.23 0 c 0.488 0 0.887 0.395 0.887 0.887 l 0 3.227 c 0 0.488 -0.398 0.887 -0.887 0.887 l -5.23 0 c -0.488 0 -0.887 -0.398 -0.887 -0.887 l 0 -3.227 c 0 -0.492 0.398 -0.887 0.887 -0.887 m 0 0" fill="#f3eb5f"/></g></g></g></g><g><g transform="translate(0,-1004.3622)"><path d="m 1 1043.36 0 4 c 0 2.216 1.784 4 4 4 l 38 0 c 2.216 0 4 -1.784 4 -4 l 0 -4 c 0 2.216 -1.784 4 -4 4 l -38 0 c -2.216 0 -4 -1.784 -4 -4 z" opacity="0.1"/></g></g></svg>
